X:15
T:Itzikel
R:misc
H:Also called "Freilach" or "Frailach", but it's not a freilach,
H:it's a klezmer listening piece.
H:Also played in Em or Dm
D:Kevin Burke: Open House
D:L\'unasa
Z:id:hn-misc-15
M:4/4
L:1/8
K:Am
EAcA Acec | d2dc dec2 | cege cege | d2dc dec2 |
cddc cBB_B | A8 | cddc cBB_B |1 A8 :|2 A4 cAce ||
|: a6 gf | e6 e2 | aeae aagf | e6 e2 |
a6 g2 | b6 g2 | aeae aagf | e6 d2 |
cdef efef | efef e2d2 | dAAd dAAd | dcde d2c2 |
cddc cBB_B | A8 | cddc cBB_B |1 A4 cAce :|2 A8 || 

